X: 37746
T: Solo
R: mazurka
M: 3/4
K: Dmajor
|:A>d|f2 g>f e>d|c2 A2 (3Bcd|e2 e>f e>d|c2 A2 d>e|
f2 g>f e>d|(3cdc A2 (3Bcd|e2- e>f e>c|d2- d>B:|
|:A>d|f2- f>e d>f|a2 a2 (3Adf|e2 e2 a>g|f2 d>B A>d|
f2 f>e d>f|a2 a2 (3dfa|b2- b>a g>e|1 d2- d>B:|2 d4||

